X: 56
T: Missa De Sancto Antonio / Agnus Dei
N: Derived from Rue1012e-Missa_De_Sancto_Antonio-Agnus.krn
C: Pierre de la Rue
%%abc-version 2.0
%%abcx-abcm2ps-target-version 5.9.1 (29 Sep 2008)
%%abc-creator hum2abc beta
%%abcx-conversion-date 2019/02/17 08:01:11
%%abc-edited-by Jesse Rodin
%%abc-edited-by Chris Gage 01-11-2013
%%abcx-initial-encoding-date 2013/07/16/
%%humdrum-veritas 1427990042
%%humdrum-veritas-data 55353594
%%linebreak <none>
%%barnumbers 0
L: 1/4
M: 3/1
Q: 1/2=120
%%staves [1 2 3 4]
V: 1 clef=treble
V: 2 clef=treble-8
V: 3 clef=treble-8
V: 4 clef=bass
K: C
[V:1] z12 | 
[V:2] B8d4 | 
[V:3] z12 | 
[V:4] E,8F,4 | 
[V:1] z12 | 
[V:2] e2g4fed4 | 
[V:3] z12 | 
[V:4] E,8G,4 | 
[V:1] E8G4 | 
[V:2] c4z4d4 | 
[V:3] z12 | 
[V:4] A,2C4B,A,B,4 | 
[V:1] A4c6BA | 
[V:2] e2a4g4^f2 | 
[V:3] c12 | 
[V:4] A,4F,2G,2A,4 | 
[V:1] B8G3A/B/ | 
[V:2] g8e3f/g/ | 
[V:3] d8e4- | 
[V:4] G,8C4 | 
[V:1] c4A3B/c/d4 | 
[V:2] a4d4z2B2 | 
[V:3] e4f4d4 | 
[V:4] A,3B,/C/D4G,4 | 
[V:1] z2G2A2c2B2A2- | 
[V:2] c2e2d2c2z2c2- | 
[V:3] e4z2c2d2f2 | 
[V:4] z2E,2F,2A,2G,2F,2 | 
[V:1] AGFEF2G2E2A2- | 
[V:2] cBAGA2e3cf2 | 
[V:3] e2d3cBAc2d2 | 
[V:4] A,2D,4G,2A,2D,2 | 
[V:1] A2^G2A8 | 
[V:2] e4z2c3de2 | 
[V:3] B4z2A3Bc2 | 
[V:4] E,4A,8 | 
[V:1] z12 | 
[V:2] f2d3cA2B2G2 | 
[V:3] d2f4f2e2d2- | 
[V:4] z2D,3E,F,2G,2B,2- | 
[V:1] z2A3Bc2d2f2- | 
[V:2] d4z4z4 | 
[V:3] defgf2e4d2- | 
[V:4] B,2A,G,A,3G,F,2D,2 | 
[V:1] fde2A2d3cBA | 
[V:2] z4z2A4Bc | 
[V:3] d2c2d8 | 
[V:4] E,4D,8 | 
[V:1] B2A2c4B2A2- | 
[V:2] d2f4e3cd2 | 
[V:3] z12 | 
[V:4] z12 | 
[V:1] AGG2A4z4 | 
[V:2] Bcdef2e4a2- | 
[V:3] z4A3Bc2d2 | 
[V:4] z12 | 
[V:1] z4A8 | 
[V:2] agg2a2gfe4 | 
[V:3] B4A8 | 
[V:4] z4A,8 | 
[V:1] c8d4- | 
[V:2] z4a8 | 
[V:3] z4A8- | 
[V:4] F,8D,4- | 
[V:1] d4e6A2 | 
[V:2] f4g6e2 | 
[V:3] A4c8 | 
[V:4] D,4C,4E,4 | 
[V:1] A8z2e2- | 
[V:2] f4f4g4- | 
[V:3] d8e4- | 
[V:4] D,8C,4- | 
[V:1] e2c2d2B2c4 | 
[V:2] g2e2d2g4f2 | 
[V:3] e4z2e4c2 | 
[V:4] C,4z2G,2A,4 | 
[V:1] B4z2A2B2d2- | 
[V:2] g4z4z2g2- | 
[V:3] d2B2c4B4 | 
[V:4] G,2G,4F,2G,2B,2 | 
[V:1] dBc2B4B2A2 | 
[V:2] g2f2g6f2 | 
[V:3] z2A2B2d3Bc2 | 
[V:4] A,4G,4G,2A,2 | 
[V:1] B2A2B2d3^cc2 | 
[V:2] g2f2g2fga4 | 
[V:3] d2c2d4e4 | 
[V:4] G,2A,2G,2_B,2A,4 | 
[V:1] d8G4 | 
[V:2] f4g4z2e2 | 
[V:3] d6B2c3B | 
[V:4] _B,4G,4z2C,2 | 
[V:1] z2G2A2B2c2d2- | 
[V:2] f2g2c2g4fe | 
[V:3] A2G2z2G2A2B2 | 
[V:4] D,2E,2F,2G,2C,2G,2 | 
[V:1] d2c4B2c4 | 
[V:2] f4g4e4 | 
[V:3] c4d4c3d | 
[V:4] A,4G,4A,3B, | 
[V:1] c2B3cd2c2B2- | 
[V:2] z4g6g2 | 
[V:3] e2d4d2e2d2- | 
[V:4] C2G,3A,B,2C2G,2- | 
[V:1] Bcd2c2B3cde | 
[V:2] g4f2g3fde | 
[V:3] d2B2c2d4B2 | 
[V:4] G,A,B,CA,2G,4G,2 | 
[V:1] c2B4A4^G2 | 
[V:2] f2g3fd2e4 | 
[V:3] c2d2e2A2B4 | 
[V:4] A,2G,2E,2F,2E,4 | 
[V:1] A12 ||  
[V:2] e12 ||  
[V:3] A12 ||  
[V:4] A,,12 ||  
[V:1]  [K:C] [K:clef=treble][M:2/1]z8 | 
[V:2]  [K:C] [K:clef=treble-8][M:2/1]B4B2c2- | 
[V:3]  [K:C] [K:clef=treble-8][M:2/1]e8- | 
[V:4]  [K:C] [K:clef=bass][M:2/1]E,3F,G,2A,2 | 
[V:1] B4B2c2- | 
[V:2] cBB4A2 | 
[V:3] e8- | 
[V:4] E,3F,G,2A,2- | 
[V:1] cBB4A2 | 
[V:2] B4c4 | 
[V:3] e8- | 
[V:4] A,2G,2A,4 | 
[V:1] B4c4 | 
[V:2] B2G2A4 | 
[V:3] e8 | 
[V:4] E,4z4 | 
[V:1] B2G2A4 | 
[V:2] B4z2A2- | 
[V:3] d8- | 
[V:4] z2G,4F,2 | 
[V:1] B4z2A2- | 
[V:2] A2G2A4 | 
[V:3] d8 | 
[V:4] G,3A,F,4 | 
[V:1] A2G2A2c2- | 
[V:2] B4A4 | 
[V:3] e8- | 
[V:4] E,4A,,2A,2- | 
[V:1] cBc4BA | 
[V:2] c8 | 
[V:3] e8- | 
[V:4] A,G,A,3B,C2- | 
[V:1] G2A2B2c2- | 
[V:2] z4z2c2 | 
[V:3] e8- | 
[V:4] C2B,A,G,2A,2- | 
[V:1] c2B2A2B2- | 
[V:2] A2B2c2Bc | 
[V:3] e8 | 
[V:4] A,2G,2A,2E,2 | 
[V:1] B2A4^G2 | 
[V:2] dcBAB4 | 
[V:3] z8 | 
[V:4] F,4E,4 | 
[V:1] A8 | 
[V:2] A4z2e2- | 
[V:3] c8- | 
[V:4] z4A,4- | 
[V:1] z4A4 | 
[V:2] e2dcf2e2- | 
[V:3] c8 | 
[V:4] A,4A,4 | 
[V:1] c4c4 | 
[V:2] e2dce2f2 | 
[V:3] c4c4 | 
[V:4] A,8 | 
[V:1] B6AG | 
[V:2] g8 | 
[V:3] d6c2 | 
[V:4] G,6F,E, | 
[V:1] B2A4G2 | 
[V:2] z8 | 
[V:3] d4e4 | 
[V:4] D,2F,2E,4 | 
[V:1] A4z2A2 | 
[V:2] z2d3ef2- | 
[V:3] f6ed | 
[V:4] D,8 | 
[V:1] A3Bc2d2- | 
[V:2] fga4g2 | 
[V:3] c2f4d2 | 
[V:4] F,3G,A,2_B,2 | 
[V:1] d2c2d2f2- | 
[V:2] a8- | 
[V:3] e4d4 | 
[V:4] A,4D,4 | 
[V:1] f2ede4 | 
[V:2] a8 | 
[V:3] z4e4- | 
[V:4] A,8- | 
[V:1] z4A4- | 
[V:2] z4A3B | 
[V:3] e4f4 | 
[V:4] A,8 | 
[V:1] A4c4 | 
[V:2] c2d2e2f2 | 
[V:3] e4c4 | 
[V:4] A,4A,4 | 
[V:1] B4G4 | 
[V:2] g8 | 
[V:3] d4e4 | 
[V:4] G,4E,4 | 
[V:1] A4A2G2- | 
[V:2] f4f2e2- | 
[V:3] c4d2B2- | 
[V:4] F,4D,2E,2- | 
[V:1] G2FEF4 | 
[V:2] e2e2a4 | 
[V:3] B2e4d2 | 
[V:4] E,2C,2D,4 | 
[V:1] E4z2e2- | 
[V:2] z8 | 
[V:3] e4f2g2 | 
[V:4] z2A,4G,2 | 
[V:1] e2f4e2- | 
[V:2] a8- | 
[V:3] e2d2e4 | 
[V:4] A,2D,4C,2 | 
[V:1] edd2e2dc | 
[V:2] a4g4 | 
[V:3] f4e4 | 
[V:4] D,4z4 | 
[V:1] B3ABAd2- | 
[V:2] g6fg | 
[V:3] e2d4d2 | 
[V:4] G,3F,G,2_B,2 | 
[V:1] d2c2d2B2 | 
[V:2] a4f2g2 | 
[V:3] e4d4 | 
[V:4] A,4_B,2G,2 | 
[V:1] c2BAG4 | 
[V:2] e2f2g2c2- | 
[V:3] c3de4 | 
[V:4] A,2G,F,E,4- | 
[V:1] z2E3FGA | 
[V:2] c2BAG4- | 
[V:3] e2c3def | 
[V:4] E,4E,4 | 
[V:1] G2E2z2G2- | 
[V:2] G4G4 | 
[V:3] e2c2z2e2- | 
[V:4] E,8- | 
[V:1] GABcB2G2 | 
[V:2] G8 | 
[V:3] efgag2fe | 
[V:4] E,8 | 
[V:1] z2B3cde | 
[V:2] z2g3abc' | 
[V:3] d8 | 
[V:4] G,8 | 
[V:1] d2B2c3A | 
[V:2] b2g4f2 | 
[V:3] d4c4 | 
[V:4] G,4A,4 | 
[V:1] B2d2c2B2- | 
[V:2] g4e2g2- | 
[V:3] d2B2c2d2- | 
[V:4] G,4A,2G,2 | 
[V:1] BAA4^G2 | 
[V:2] gfede4 | 
[V:3] dcBAB4 | 
[V:4] A,4E,4 | 
[V:1] A8- | 
[V:2] e8- | 
[V:3] A8- | 
[V:4] z4A,,4 | 
[V:1] A8 |]  
[V:2] e8 |]  
[V:3] A8 |]  
[V:4] A,,8 |]  



